assets/images/icons/trip.svg

<svg width="20" height="20" viewBox="0 0 20 20" fill="none" xmlns="http://www.w3.org/2000/svg">
<path d="M10 20C15.5228 20 20 15.5228 20 10C20 4.47715 15.5228 0 10 0C4.47715 0 0 4.47715 0 10C0 15.5228 4.47715 20 10 20Z" fill="#34E0A1"/>
<path d="M16.1762 8.04848L17.3821 6.73492H14.7073C13.3204 5.79129 11.6818 5.28668 10.0043 5.28668C8.32688 5.28668 6.68822 5.79129 5.30135 6.73492H2.61853L3.82442 8.04848C3.46775 8.37638 3.17916 8.77132 2.97513 9.21075C2.77109 9.65018 2.6556 10.1255 2.63526 10.6096C2.61492 11.0936 2.69012 11.577 2.85657 12.032C3.02301 12.487 3.27745 12.9047 3.60535 13.2614C3.93325 13.6181 4.32819 13.9066 4.76762 14.1107C5.20705 14.3147 5.68237 14.4302 6.16643 14.4505C6.65049 14.4709 7.13382 14.3957 7.58882 14.2292C8.04382 14.0628 8.46158 13.8084 8.81825 13.4805L10.0009 14.767L11.1827 13.481C11.5391 13.8103 11.957 14.0661 12.4125 14.2336C12.8679 14.4011 13.3519 14.4772 13.8368 14.4574C14.3217 14.4375 14.7979 14.3223 15.2381 14.1181C15.6784 13.914 16.0741 13.625 16.4025 13.2678C16.7309 12.9105 16.9856 12.4919 17.152 12.0361C17.3184 11.5802 17.3932 11.096 17.3722 10.6112C17.3512 10.1263 17.2347 9.65043 17.0295 9.21069C16.8243 8.77094 16.5343 8.376 16.1762 8.04848ZM6.30999 13.2714C5.81595 13.2714 5.33301 13.1249 4.92222 12.8505C4.51144 12.576 4.19128 12.1859 4.00222 11.7294C3.81316 11.273 3.76369 10.7707 3.86007 10.2862C3.95646 9.80164 4.19436 9.35656 4.5437 9.00722C4.89304 8.65788 5.33813 8.41997 5.82267 8.32359C6.30722 8.22721 6.80947 8.27668 7.26591 8.46574C7.72234 8.6548 8.11246 8.97496 8.38694 9.38574C8.66141 9.79652 8.80791 10.2795 8.80791 10.7735C8.80791 11.436 8.54474 12.0714 8.07629 12.5398C7.60784 13.0083 6.97248 13.2714 6.30999 13.2714ZM9.99974 10.7032C9.99974 9.06029 8.80475 7.65054 7.22877 7.04788C8.10667 6.68199 9.04835 6.4936 9.99945 6.4936C10.9505 6.4936 11.8922 6.68199 12.7701 7.04788C11.1956 7.65054 10.0009 9.06 10.0009 10.7029L9.99974 10.7032ZM13.6889 13.2714C13.1949 13.2714 12.7119 13.1249 12.3011 12.8505C11.8904 12.576 11.5702 12.1859 11.3811 11.7294C11.1921 11.273 11.1426 10.7707 11.239 10.2862C11.3354 9.80164 11.5733 9.35656 11.9226 9.00722C12.2719 8.65788 12.717 8.41997 13.2016 8.32359C13.6861 8.22721 14.1884 8.27668 14.6448 8.46574C15.1012 8.6548 15.4914 8.97496 15.7658 9.38574C16.0403 9.79652 16.1868 10.2795 16.1868 10.7735C16.1868 11.436 15.9236 12.0714 15.4552 12.5398C14.9867 13.0083 14.3514 13.2714 13.6889 13.2714ZM13.6889 9.46627C13.43 9.46627 13.1769 9.54306 12.9617 9.68692C12.7464 9.83078 12.5787 10.0353 12.4797 10.2745C12.3807 10.5137 12.3549 10.7769 12.4055 11.0308C12.4561 11.2847 12.5809 11.5179 12.764 11.7008C12.9472 11.8838 13.1805 12.0083 13.4345 12.0587C13.6884 12.109 13.9516 12.0829 14.1907 11.9836C14.4298 11.8843 14.6341 11.7164 14.7777 11.501C14.9214 11.2856 14.9979 11.0324 14.9976 10.7735C14.9973 10.4266 14.8593 10.0941 14.6139 9.84888C14.3685 9.6037 14.0358 9.46598 13.6889 9.46598V9.46627ZM7.61982 10.7735C7.62005 11.0323 7.54352 11.2854 7.39991 11.5008C7.2563 11.7161 7.05206 11.884 6.81301 11.9833C6.57397 12.0825 6.31086 12.1087 6.05696 12.0584C5.80306 12.0081 5.56976 11.8837 5.38658 11.7008C5.2034 11.518 5.07855 11.2849 5.02783 11.0311C4.97712 10.7773 5.0028 10.5141 5.10164 10.2749C5.20048 10.0357 5.36804 9.83116 5.58313 9.68717C5.79821 9.54318 6.05116 9.46621 6.30999 9.46598C6.48185 9.46583 6.65206 9.49953 6.81089 9.56516C6.96973 9.63079 7.11408 9.72706 7.23571 9.84847C7.35734 9.96989 7.45386 10.1141 7.51977 10.2728C7.58567 10.4315 7.61967 10.6017 7.61982 10.7735Z" fill="black"/>
</svg>

<svg xmlns="http://www.w3.org/2000/svg" width="20" height="20" fill="none"><path fill="#34E0A1" d="M10 20c5.523 0 10-4.477 10-10S15.523 0 10 0 0 4.477 0 10s4.477 10 10 10"/><path fill="#000" d="m16.176 8.048 1.206-1.313h-2.675a8.36 8.36 0 0 0-9.406 0H2.62l1.205 1.313a3.69 3.69 0 0 0 4.994 5.432l1.183 1.287 1.182-1.286a3.688 3.688 0 0 0 5.969-1.445 3.69 3.69 0 0 0-.976-3.988M6.31 13.271a2.498 2.498 0 1 1 0-4.997 2.498 2.498 0 0 1 0 4.997M10 10.703c0-1.643-1.195-3.052-2.771-3.655a7.2 7.2 0 0 1 5.541 0C11.196 7.65 10 9.06 10 10.703m3.689 2.568a2.499 2.499 0 1 1 0-4.997 2.499 2.499 0 0 1 0 4.997m0-3.805a1.309 1.309 0 1 0 0 2.618 1.309 1.309 0 0 0 0-2.618m-6.07 1.308a1.309 1.309 0 1 1-2.617.002 1.309 1.309 0 0 1 2.618-.002"/></svg>
